X:1
T:James Gibb editions
T:Lo, the bread which angels feedeth - Barnby
%%score [ ( 1 2 ) ( 3 4 ) ]
L:1/8
Q:1/4=76
M:4/4
K:D
V:1 treble nm="Midi_74"
V:2 treble 
V:3 bass nm="Midi_74"
V:4 bass 
V:1
"^Lo, the bread which angels feedeth""^Joseph Barnby\n(1838-96)" F2 A2 | F2 E2 D2 E2 | D2 C2 || %3
 G2 G2 | F2 B2 A2 G2 | F2 E2 || A2 A2 | d2 c2 B2 F2 | A2 G2 || A2 B2 | E2 F2 E2 E2 | D4 :| %12
[M:4/4] E2 F2 | G2 =c2"^I" B2 A2 | A2 B2 || d2 =c2 | B2 B2 !courtesy!^c2 B2 | ^A2 F2 || B2 c2 | %19
 d2 c2 e2 c2 | ^A2 F2 || B2 c2 | d2 c2 e2 d2 | c2 BA ||"^KJ" d2 G2 | F3 G E3 D | D4 || d2 =c2 | %28
 B2 A2 ^G2 B2 | E2 E2 || e2 d2 | =c2"^1" B2 A2 A2 | A2 Bc || d2 d2 | e2 d2 c2 d2 | d2 A2 || d2 d2 | %37
 e2 d2 c2 d2 | d2 A2 || F2 G2 | A4 D4 | F6 E2 | D4 || d4 d4 |] %44
V:2
 D2 E2 | D2 C2 D2 B,2 | A,2 A,2 || D2 E2 | D2 C2 D2 E2 | D2 C2 || E2 E2 | D2 F2 F2 F2 | F2 E2 || %9
 F2 G2 | C2 D2 D2 C2 | D4 :|[M:4/4] G,2 D2 | D2 =C2 D2 F2 | F2 G2 || G2 A2 | G2 G2 G2 G2 | F2 C2 || %18
 F2 F2 | F2 F2 E2 G2 | F2 C2 || F2 F2 | F2 F2 E2 E2 | E2 DC || D2 E2 | A,2 D2 D2 C2 | D4 || D2 D2 | %28
 D2 D2 D2 B,2 | E2 D2 || =C2 B,2 | A,2 E2 E2 E2 | A2 G2 || F2 F2 | G2 G2 G2 G2 | F2 F2 || D2 D2 | %37
 E2 E2 ^E2 E2 | F2 D2 || A,2 D2 | =C4 B,4 | D4 C4 | D4 || G4 F4 |] %44
V:3
 A,2 A,2 | A,2 G,2 F,2 G,2 | F,2 E,2 || B,2 A,2 | A,2 G,2 A,2 B,2 | A,2 A,2 || C2 C2 | %7
 A,2 ^A,2 B,2 B,2 | B,2 B,2 || A,2 G,2 | G,2 F,2 G,F, G,2 | F,4 :|[M:4/4] G,2 A,2 | %13
 G,2 G,2 G,2 D2 | =C2 B,2 || B,2 D2 | D2 D2 !courtesy!^C2 E2 | C2 ^A,2 || B,2 ^A,2 | %19
 B,2 C2 B,2 E2 | C2 ^A,2 || B,2 A,2 | B,2 C2 B,2 E2 | A,2 A,2 || A,2 B,C | D2"^1" B,2 E,2 G,2 | %26
 F,4 || D,2 D,2 | D2 =C2 B,2 ^G,2 | A,2 B,2 || =C2 ^G,2 | E2 D2 =C2 ^C2 | D2 B,2 || A,2 A,2 | %34
 G,2 G,2 E2 D2 | A,2 A,2 || D2 D2 | B,2 B,2 C2 B,2 | A,2 A,2 || A,2 G,2 | D,4 B,4 | A,4 G,4 | %42
 F,4 || B,4 A,4 |] %44
V:4
 D,2 C,2 | D,2 A,,2 B,,2 G,,2 | A,,2 A,,2 || B,,2 C,2 | D,2 E,2 F,2 G,2 | A,2 A,2 || A,2 G,2 | %7
 F,2 E,2 D,2 ^D,2 | E,2 E,2 || G,,2 G,,2 | A,,2 D,2 A,,2 A,,2 | D,4 :|[M:4/4] =C,2 C,2 | %13
 B,,2 E,2 D,2 D,2 | G,2 G,2 || B,2- F,2 | G,2 F,2 E,2 C,2 | F,2 F,2 || D,2 F,2 | %19
 B,2 !courtesy!=A,2 G,2 E,2 | F,3 E, || D,2 C,2 | B,,2 A,,2 G,,2 G,2 | G,2 G,2 || F,2 E,2 | %25
 D,2 G,,2 A,,2 A,,2 | D,4 || D,2 D,2 | D,2 D,2 E,2 D,2 | =C,2 B,,2 || A,,2 E,2 | A,2 A,2 A,2 G,2 | %32
 F,2 G,2 || D,2 =C,2 | B,,2 B,,2 _B,,2 B,,2 | A,,2 A,,2 || D2 D2 | ^G,2 G,2 G,2 G,2 | A,2 F,2 || %39
 D,2 B,,2 | F,,4 G,,4 | A,,4 A,,4 | D,4 || G,,4 D,4 |] %44

